brandFactory_export/2.Regular/Añadir mas _2regular.svg

<?xml version="1.0" encoding="UTF-8"?>
<svg width="24px" height="24px" viewBox="0 0 24 24" version="1.1" xmlns="http://www.w3.org/2000/svg" xmlns:xlink="http://www.w3.org/1999/xlink">
    <title>2.Regular/Añadir mas _2regular</title>
    <g id="Symbols" stroke="none" stroke-width="1" fill="none" fill-rule="evenodd">
        <g id="2.Regular/Añadir-mas-_2regular" fill="#5CB615" fill-rule="nonzero">
            <path d="M17.697479,11.0386555 C18.1042017,11.0386555 18.4369748,11.3680672 18.4369748,11.7781513 C18.4369748,12.1882353 18.107563,12.5176471 17.697479,12.5176471 L12.5445378,12.5176471 L12.5445378,17.6806723 C12.5445378,18.087395 12.2151261,18.4201681 11.805042,18.4201681 C11.3983193,18.4201681 11.0655462,18.0907563 11.0655462,17.6806723 L11.0655462,12.5142857 L5.92268908,12.5142857 C5.51596639,12.5142857 5.18319328,12.1848739 5.18319328,11.7747899 C5.18319328,11.3647059 5.51260504,11.0352941 5.92268908,11.0352941 L11.0655462,11.0352941 L11.0655462,5.94285714 C11.0655462,5.53613445 11.394958,5.20336134 11.805042,5.20336134 C12.2151261,5.20336134 12.5445378,5.53277311 12.5445378,5.94285714 L12.5445378,11.0386555 L17.697479,11.0386555 Z M12.3226891,22.1411765 C15.2773109,22.087395 22.1445378,20.9747899 22.1445378,11.8420168 C22.1445378,2.7092437 15.2369748,1.55630252 12.2689076,1.48571429 C11.9865546,1.4789916 11.7042017,1.47563025 11.4218487,1.47563025 L11.2,1.47563025 C8.27563025,1.50252101 1.4789916,2.55462185 1.4789916,11.7747899 C1.4789916,21.0084034 8.34285714,22.1042017 11.2941176,22.1445378 C11.6369748,22.1478992 11.9798319,22.1478992 12.3226891,22.1411765 L12.3226891,22.1411765 Z M12.302521,0.0100840336 C14.6218487,0.0672268908 23.6235294,0.981512605 23.6235294,11.8420168 C23.6235294,22.7294118 14.605042,23.5731092 12.3529412,23.6168067 C12.1411765,23.6201681 11.8991597,23.6235294 11.6537815,23.6235294 C11.5260504,23.6235294 11.3983193,23.6235294 11.2705882,23.6201681 C8.89747899,23.5865546 0,22.7294118 0,11.7747899 C0,0.833613445 8.81344538,0.0201680672 11.1865546,0 L11.4218487,0 C11.7243697,0 12.0369748,0.00336134454 12.302521,0.0100840336 Z" id="Añadir-mas-_2regular"></path>
        </g>
    </g>
</svg>

<svg width="24" height="24" viewBox="0 0 24 24" xmlns="http://www.w3.org/2000/svg"><path d="M17.697 11.039a.74.74 0 010 1.479h-5.152v5.163a.74.74 0 01-1.48 0v-5.167H5.924a.74.74 0 010-1.479h5.143V5.943a.74.74 0 011.479 0v5.096h5.152zM12.323 22.14c2.954-.054 9.822-1.166 9.822-10.299S15.237 1.556 12.269 1.486c-.282-.007-.565-.01-.847-.01H11.2c-2.924.027-9.721 1.079-9.721 10.299 0 9.233 6.864 10.33 9.815 10.37.343.003.686.003 1.029-.004zm-.02-22.13c2.319.056 11.32.97 11.32 11.831 0 10.887-9.018 11.731-11.27 11.775-.212.003-.454.007-.7.007-.127 0-.255 0-.382-.004C8.897 23.587 0 22.73 0 11.775 0 .834 8.813.02 11.187 0h.235c.302 0 .615.003.88.01z" fill="#5CB615" fill-rule="nonzero"/></svg>
